src/topics/icons/android-icon.svg

<svg height="301" preserveAspectRatio="xMidYMid" viewBox="0 0 256 301" width="256" xmlns="http://www.w3.org/2000/svg"><path d="m78.3890161.85847624c-1.4043568.01340134-2.8620955.35219759-4.1901806 1.08836081-4.2175201 2.33781261-5.7643563 7.75765047-3.4283296 11.97195165l9.5231373 17.1960698c-22.9434597 14.196102-38.1469672 38.4434771-38.1469672 66.1177815 0 .1161707-.0003222.2906803 0 .4625525.0001134.0606496-.0005661.0952182 0 .1632472.0000352.0904419 0 .2225139 0 .2448838v4.2718065c-4.4064765-5.0699681-10.8839423-8.271523-18.1211696-8.271523-13.2589324 0-24.0255064 10.766578-24.0255064 24.025514v74.00838c0 13.258936 10.766574 24.025514 24.0255064 24.025514 7.2372273 0 13.7146931-3.201555 18.1211696-8.271523v10.366617c0 13.976492 11.4366806 25.413172 25.4131724 25.413172h6.448524v32.922854c0 13.258996 10.7665826 24.025514 24.0255132 24.025514 13.2589354 0 24.0255144-10.766518 24.0255144-24.025514v-32.922854h11.155681v32.922854c0 13.258996 10.766578 24.025514 24.025514 24.025514 13.258927 0 24.025523-10.766518 24.025523-24.025514v-32.922854h6.448519c13.976492 0 25.413172-11.43668 25.413172-25.413172v-10.366617c4.40649 5.069968 10.883943 8.271523 18.121175 8.271523 13.258935 0 24.025514-10.766578 24.025514-24.025514v-74.00838c0-13.258936-10.766579-24.025514-24.025514-24.025514-7.237232 0-13.714685 3.2015549-18.121175 8.271523v-4.1901786-.0816107c.000558-.1309638.000146-.2612145 0-.2448752.001718-.2608107 0-.468626 0-.6258083 0-27.6694593-15.237412-51.8934422-38.174179-66.0905751l9.550355-17.2233191c2.336026-4.21430126.789193-9.63413911-3.42833-11.97195172-1.32809-.73616323-2.785821-1.07494229-4.190178-1.08836081-3.114498-.0298094-6.171439 1.61158013-7.781773 4.51669047l-9.985693 18.03955546c-9.764097-3.6031914-20.387943-5.5778449-31.480766-5.5778449-11.081519 0-21.724882 1.9544398-31.4807757 5.5506298l-9.9856924-18.01234036c-1.6103242-2.90511893-4.6672709-4.54643114-7.7817608-4.51669047z" fill="#fff"/><g fill="#a4c639"><path d="m24.0260725 100.361664c-9.8943725 0-17.76745357 7.873083-17.76745357 17.767457v74.00838c0 9.894374 7.87308107 17.767457 17.76745357 17.767457 9.8943716 0 17.7674532-7.873083 17.7674532-17.767457v-74.00838c0-9.894374-7.8730816-17.767457-17.7674532-17.767457zm207.2234785 0c-9.894375 0-17.767457 7.873083-17.767457 17.767457v74.00838c0 9.894374 7.873082 17.767457 17.767457 17.767457 9.894374 0 17.767448-7.873083 17.767448-17.767457v-74.00838c0-9.894374-7.873074-17.767457-17.767448-17.767457z"/><path d="m98.0338856 184.818075c-9.8943742 0-17.7674515 7.873082-17.7674515 17.767456v74.008432c0 9.8944 7.8730773 17.767345 17.7674515 17.767345 9.8943744 0 17.7674564-7.872945 17.7674564-17.767345v-74.008432c0-9.894374-7.873082-17.767456-17.7674564-17.767456zm59.2067094 0c-9.894374 0-17.767457 7.873082-17.767457 17.767456v74.008432c0 9.8944 7.873083 17.767345 17.767457 17.767345s17.767448-7.872945 17.767448-17.767345v-74.008432c0-9.894374-7.873074-17.767456-17.767448-17.767456z"/><path d="m78.4434341 7.11654228c-.420011.0042953-.8113843.11265718-1.1971943.32650309-1.2669543.70229047-1.6835866 2.1581745-.979523 3.42833823l12.5161192 22.6106502c-24.0804424 12.5297224-40.3454995 36.3412188-40.3780983 63.6689783h158.4650133c-.032558-27.3277595-16.297655-51.1392559-40.378106-63.6689783l12.516132-22.6106502c.70406-1.27016373.287424-2.72604776-.979527-3.42833823-.385812-.21384591-.777183-.32249987-1.197195-.32650309-.899136-.00867651-1.751409.44057772-2.231143 1.30602953l-12.679379 22.85553399c-10.372236-4.6007839-22.006302-7.1831624-34.283288-7.1831624-12.276996 0-23.911071 2.5823785-34.2832971 7.1831624l-12.6793793-22.85553399c-.4797311-.86545181-1.332011-1.31465449-2.2311345-1.30602953zm-30.0386964 96.29252772v114.849039c0 10.61193 8.5431796 19.155105 19.1551107 19.155105h120.1547886c10.611939 0 19.155114-8.543175 19.155114-19.155105v-114.849039z"/></g><path d="m91.0681772 54.9226953c-3.6174604 0-6.6117799 2.9943152-6.6117799 6.6117842 0 3.6174604 2.9943195 6.6117755 6.6117799 6.6117755s6.6117756-2.9943151 6.6117756-6.6117755c0-3.617469-2.9943152-6.6117842-6.6117756-6.6117842zm73.1376968 0c-3.617461 0-6.611784 2.9943152-6.611784 6.6117842 0 3.6174604 2.994323 6.6117755 6.611784 6.6117755 3.617452 0 6.611775-2.9943151 6.611775-6.6117755 0-3.617469-2.994323-6.6117842-6.611775-6.6117842z" fill="#fff"/></svg>

<?xml version="1.0" encoding="UTF-8" standalone="no"?>
<svg width="256px" height="301px" viewBox="0 0 256 301" version="1.1" xmlns="http://www.w3.org/2000/svg" xmlns:xlink="http://www.w3.org/1999/xlink" preserveAspectRatio="xMidYMid">
	<g>
		<path d="M78.3890161,0.858476242 C76.9846593,0.871877584 75.5269206,1.21067383 74.1988355,1.94683705 C69.9813154,4.28464966 68.4344792,9.70448752 70.7705059,13.9187887 L80.2936432,31.1148585 C57.3501835,45.3109605 42.146676,69.5583356 42.146676,97.23264 C42.146676,97.3488107 42.1463538,97.5233203 42.146676,97.6951925 C42.1467894,97.7558421 42.1461099,97.7904107 42.146676,97.8584397 C42.1467112,97.9488816 42.146676,98.0809536 42.146676,98.1033235 L42.146676,102.37513 C37.7401995,97.3051619 31.2627337,94.103607 24.0255064,94.103607 C10.766574,94.103607 0,104.870185 0,118.129121 L0,192.137501 C0,205.396437 10.766574,216.163015 24.0255064,216.163015 C31.2627337,216.163015 37.7401995,212.96146 42.146676,207.891492 L42.146676,218.258109 C42.146676,232.234601 53.5833566,243.671281 67.5598484,243.671281 L74.0083724,243.671281 L74.0083724,276.594135 C74.0083724,289.853131 84.774955,300.619649 98.0338856,300.619649 C111.292821,300.619649 122.0594,289.853131 122.0594,276.594135 L122.0594,243.671281 L133.215081,243.671281 L133.215081,276.594135 C133.215081,289.853131 143.981659,300.619649 157.240595,300.619649 C170.499522,300.619649 181.266118,289.853131 181.266118,276.594135 L181.266118,243.671281 L187.714637,243.671281 C201.691129,243.671281 213.127809,232.234601 213.127809,218.258109 L213.127809,207.891492 C217.534299,212.96146 224.011752,216.163015 231.248984,216.163015 C244.507919,216.163015 255.274498,205.396437 255.274498,192.137501 L255.274498,118.129121 C255.274498,104.870185 244.507919,94.103607 231.248984,94.103607 C224.011752,94.103607 217.534299,97.3051619 213.127809,102.37513 L213.127809,98.1849514 L213.127809,98.1033407 C213.128367,97.9723769 213.127955,97.8421262 213.127809,97.8584655 C213.129527,97.5976548 213.127809,97.3898395 213.127809,97.2326572 C213.127809,69.5631979 197.890397,45.339215 174.95363,31.1420821 L184.503985,13.918763 C186.840011,9.70446174 185.293178,4.28462389 181.075655,1.94681128 C179.747565,1.21064805 178.289834,0.871868993 176.885477,0.85845047 C173.770979,0.828641074 170.714038,2.4700306 169.103704,5.37514094 L159.118011,23.4146964 C149.353914,19.811505 138.730068,17.8368515 127.637245,17.8368515 C116.555726,17.8368515 105.912363,19.7912913 96.1564693,23.3874813 L86.1707769,5.37514094 C84.5604527,2.47002201 81.503506,0.828709799 78.3890161,0.85845047 L78.3890161,0.858476242 Z" fill="#FFFFFF"></path>
		<path d="M24.0260725,100.361664 C14.1317,100.361664 6.25861893,108.234747 6.25861893,118.129121 L6.25861893,192.137501 C6.25861893,202.031875 14.1317,209.904958 24.0260725,209.904958 C33.9204441,209.904958 41.7935257,202.031875 41.7935257,192.137501 L41.7935257,118.129121 C41.7935257,108.234747 33.9204441,100.361664 24.0260725,100.361664 L24.0260725,100.361664 Z M231.249551,100.361664 C221.355176,100.361664 213.482094,108.234747 213.482094,118.129121 L213.482094,192.137501 C213.482094,202.031875 221.355176,209.904958 231.249551,209.904958 C241.143925,209.904958 249.016999,202.031875 249.016999,192.137501 L249.016999,118.129121 C249.016999,108.234747 241.143925,100.361664 231.249551,100.361664 L231.249551,100.361664 Z" fill="#A4C639"></path>
		<path d="M98.0338856,184.818075 C88.1395114,184.818075 80.2664341,192.691157 80.2664341,202.585531 L80.2664341,276.593963 C80.2664341,286.488363 88.1395114,294.361308 98.0338856,294.361308 C107.92826,294.361308 115.801342,286.488363 115.801342,276.593963 L115.801342,202.585531 C115.801342,192.691157 107.92826,184.818075 98.0338856,184.818075 L98.0338856,184.818075 Z M157.240595,184.818075 C147.346221,184.818075 139.473138,192.691157 139.473138,202.585531 L139.473138,276.593963 C139.473138,286.488363 147.346221,294.361308 157.240595,294.361308 C167.134969,294.361308 175.008043,286.488363 175.008043,276.593963 L175.008043,202.585531 C175.008043,192.691157 167.134969,184.818075 157.240595,184.818075 L157.240595,184.818075 Z" fill="#A4C639"></path>
		<path d="M78.4434341,7.11654228 C78.0234231,7.12083758 77.6320498,7.22919946 77.2462398,7.44304537 C75.9792855,8.14533584 75.5626532,9.60121987 76.2667168,10.8713836 L88.782836,33.4820338 C64.7023936,46.0117562 48.4373365,69.8232526 48.4047377,97.1510121 L206.869751,97.1510121 C206.837193,69.8232526 190.572096,46.0117562 166.491645,33.4820338 L179.007777,10.8713836 C179.711837,9.60121987 179.295201,8.14533584 178.02825,7.44304537 C177.642438,7.22919946 177.251067,7.1205455 176.831055,7.11654228 C175.931919,7.10786577 175.079646,7.55712 174.599912,8.42257181 L161.920533,31.2781058 C151.548297,26.6773219 139.914231,24.0949434 127.637245,24.0949434 C115.360249,24.0949434 103.726174,26.6773219 93.3539479,31.2781058 L80.6745686,8.42257181 C80.1948375,7.55712 79.3425576,7.10791732 78.4434341,7.11654228 L78.4434341,7.11654228 Z M48.4047377,103.40907 L48.4047377,218.258109 C48.4047377,228.870039 56.9479173,237.413214 67.5598484,237.413214 L187.714637,237.413214 C198.326576,237.413214 206.869751,228.870039 206.869751,218.258109 L206.869751,103.40907 L48.4047377,103.40907 L48.4047377,103.40907 Z" fill="#A4C639"></path>
		<path d="M91.0681772,54.9226953 C87.4507168,54.9226953 84.4563973,57.9170105 84.4563973,61.5344795 C84.4563973,65.1519399 87.4507168,68.146255 91.0681772,68.146255 C94.6856376,68.146255 97.6799528,65.1519399 97.6799528,61.5344795 C97.6799528,57.9170105 94.6856376,54.9226953 91.0681772,54.9226953 L91.0681772,54.9226953 Z M164.205874,54.9226953 C160.588413,54.9226953 157.59409,57.9170105 157.59409,61.5344795 C157.59409,65.1519399 160.588413,68.146255 164.205874,68.146255 C167.823326,68.146255 170.817649,65.1519399 170.817649,61.5344795 C170.817649,57.9170105 167.823326,54.9226953 164.205874,54.9226953 L164.205874,54.9226953 Z" fill="#FFFFFF"></path>
	</g>
</svg>
